!!!OTL: Der Appenzeller Kuhreyen
!!!ARE: Europa, Mitteleuropa, Deutschland
!!!SCT: A0484A
!!!YEM: Copyright 1995, estate of Helmut Schaffrath.
**kern
*ICvox
*Ivox
!! Mixed meters:  4/2; 3/2; 6/2
*M3/2
*k[b-]
*F:
{1f
2.a
4b-
=1
2cc
2cc
1cc
=2
2cc
1cc
4b-
4a
=3
2b-
2cc
1g
=4
1cc
2a
=5
1b-
2g
=6
1a
2f
=7
2g
2g
2e}
=8
*M4/2
{2f
2e
1c
=9
*M3/2
2.f
4g
4a
4b-
=10
*M4/2
1cc
2b-
2g
=11
1cc
2b-
2g
=12
1cc
2b-
2g
=13
2a
2f
2g
2e
=14
*M3/2
2f
4e
4d
2c}
=15
{2.f
4g
4a
4b-
=16
1cc
2a
=17
1cc
2a
=18
1cc
2a
=19
2b-
2g
2a
=20
2f
1g
=21
2e
2f
2g
=22
1c
2r}
=23
{2.f
4g
4a
4b-
=24
2.cc
4b-
4g
4a
=25
*M4/2
4b-
4a
1f
2r
=26
*M3/2
2.cc
4b-
4g
4a
=27
*M4/2
4b-
4a
1f
2r
=28
*M3/2
2.cc
4b-
4g
4a
=29
*M6/2
2b-
2a
1f
2r
2f}
=30
*M4/2
{4g
4a
2b-
4g
4b-
2a
=31
1f
1r
=32
*M3/2
2cc
2a
2f
=33
2g
2e
2c
=34
2cc
2a
2f
=35
2g
2e
2c
=36
2cc
4g
4a
4b-
4a
=37
1f
2r}
=38
{2f
4g
4b-
2a
=39
2f
2cc
2b-
=40
2g
2a
2f
=41
1cc
2b-
=42
2g
2a
2f
=43
2g
2e
2c
=44
2.cc
4b-
2a
=45
*M4/2
1g
2f
2r}
=46
*M3/2
{1f
2f
=47
2.f
4g
4a
4b-
=48
1cc
2cc
=49
1cc
4b-
4a
=50
*M6/2
2b-
2cc
1a
1f
=51
*M4/2
2r
2cc
2b-
2g
=52
2a
2f
2g
2e
=53
0f}
=54
{2r
2cc
2b-
2g
=55
2a
2f
4g
4a
4b-
4a
=56
2f
2g
2e
2c
=57
2cc
2b-
4g
4a
4b-
4a
=58
2f
2g
1e
=59
*M3/2
1c
2r}
=60
{2c
=61
*M4/2
1f
2r
2c
=62
1f
2r
2c
=63
1f
2r
2f
=64
1cc
2r
2f
=65
1cc
2r
2f
=66
*M3/2
1cc
2r}
=67
{2f
=68
4f
4g
4a
4b-
2cc
=69
*M4/2
2b-
2g
2a
2f
=70
1cc
2a
2f
=71
2g
2e
2c
2cc
=72
4cc
4b-
2a
2f
2a
=73
1g
1f}
=74
{2r
2f
2.a
4b-
=75
2cc
2cc
1cc
=76
2cc
1cc
4b-
4a
=77
2g
1cc
2b-
=78
2g
2cc
2b-
2g
=79
2a
2f
2g
2e
=80
2c
2cc
2b-
2g}
=81
{2a
2f
2g
2e
=82
1c
2r
2cc
=83
2b-
2g
2a
[2f
=84
2f]
2a
1g
=85
0f}
==
!!!AGN: Romanze, Ballade, Lied
!! Rhaw Bicinia 1545 II No. 84.
!!!ONB: ESAC (Essen Associative Code) Database: ALTDEU
!!!AMT: irregular
!!!AIN: vox
!!!EED: Helmut Schaffrath
!!!EEV: 1.0
*-
